X:1
T:Victim Divine, 88.88.88
T:Victim Divine, 88.88.88
T:Joseph Barnby, 1889
T:Public Domain Courtesy of the Cyber Hymnal™
C:Joseph Barnby, 1889
Z:Public Domain
Z:Courtesy of the Cyber Hymnal™
%%score ( 1 2 ) ( 3 4 )
L:1/8
M:3/4
K:Eb
V:1 treble 
V:2 treble 
V:3 bass 
V:4 bass 
V:1
 [GB]2 [FA]2 [EG]2 | [GB]4 [FA]2 | ([Ac]2 [GB]2) [FA]2 | [EG]6 | G2 [G=A]2 [^FA]2 | (B2 d2) [Gc]2 | %6
 [GB]4 [^F=A]2 | G4 [DB]2 | ([EB]2 [FA]2) G2 | [GB]4 [FA]2 | ([Ac]2 [GB]2) [FA]2 | [EG]6 | %12
 [Ge]2 [Fd]2 [Ec]2 | [DB]4 [Ec]2 | [Fd]4 [E=A]2 | [DB]6 x2 | [EB]2 [Ee]2 [Gd]2 | [Cc]4 [EB]2 | %18
 (B2 A2) [Ec]2 | [DF]4 [FA]2 | [EG]4 [_DB]2 | (A2 G2) [CF]2 | [B,E]4 [DF]2 | E6 |] %24
V:2
 x6 | x6 | x6 | x6 | G2 x4 | G4 x2 | x6 | G4 x2 | x4 G2 | x6 | x6 | x6 | x6 | x6 | x6 | x8 | x6 | %17
 x6 | E4 x2 | x6 | x6 | C4 x2 | x6 | E6 |] %24
V:3
 [E,B,]2 [E,B,]2 [E,B,]2 | [E,C]4 [E,C]2 | [E,D]4 [E,B,]2 | [E,E]6 | [E,B,]2 [E,C]2 [D,D]2 | %5
 ([G,D]2 F2) E2 | [D,D]4 [D,C]2 | [G,B,]4 [F,A,]2 | (G,2 B,2) [E,E]2 | [A,,C]4 [A,,C]2 | %10
 [B,,D]4 [B,,D]2 | [C,E]6 | [C,G,]2 [F,=A,]2 [F,A,]2 | [G,B,]4 [G,B,]2 | [F,C]4 [F,C]2 | B,6 A,2 | %16
 [G,B,]2 [G,B,]2 [F,=B,]2 | [E,C]4 [_D,G,]2 | (G,2 A,2) [A,,F,]2 | [B,,B,]4 [D,B,]2 | %20
 (B,2 G,2) [G,,E,]2 | (C2 B,2) [A,,A,]2 | [B,,G,]4 [A,,A,]2 | [E,G,]6 |] %24
V:4
 x6 | x6 | x6 | x6 | x6 | x2 C,4 | x6 | x6 | E,4 x2 | x6 | x6 | x6 | x6 | x6 | x6 | B,4 x4 | x6 | %17
 x6 | C,4 x2 | x6 | E,4 x2 | A,,4 x2 | x6 | x6 |] %24

